Adwaita++-Dark/actions/22/fitsize.svg

<svg height="22" viewBox="0 0 22 22" width="22" xmlns="http://www.w3.org/2000/svg">
  <path d="m4 5v2 3 2 5h2v-5h5v-2-5h-5zm2 2h3v3h-3zm6 3v1.537109l1.683594 1.962891-1.683594 1.962891v1.537109h1.316406l1.683594-1.962891 1.683594 1.962891h1.316406v-1.537109l-1.683594-1.962891 1.683594-1.962891v-1.537109h-1.316406l-1.683594 1.962891-1.683594-1.962891z" fill="#e6ddff"/>
</svg>

<svg xmlns="http://www.w3.org/2000/svg" width="22" height="22" version="1.1" viewBox="0 0 22 22">
 <defs>
  <style id="current-color-scheme" type="text/css">
   .ColorScheme-Text { color:#E6DDFF; } .ColorScheme-Highlight { color:#4285f4; }
  </style>
 </defs>
 <path style="fill:currentColor" class="ColorScheme-Text" d="m 4,5 v 2 3 2 5 h 2 v -5 h 5 V 10 5 H 6 Z m 2,2 h 3 v 3 H 6 Z m 6,3 v 1.537109 L 13.683594,13.5 12,15.462891 V 17 h 1.316406 L 15,15.037109 16.683594,17 H 18 V 15.462891 L 16.316406,13.5 18,11.537109 V 10 H 16.683594 L 15,11.962891 13.316406,10 Z"/>
</svg>
